X: 2359
M: C
L: 1/8
K: D
|: uA2 |\
d2(fd) ceAc | dAfd egce |\
d2(fd) ceAg | fdec d2 ::\
(AG) |\
[1 FDAF dABG | FDEC D2 :|\
[2 FDAF dAAg | fdec d2 |]


